X:80
T:Now or Never THO4.080
M:2/4
L:1/16
Z:vmp. Peter Dunk 2010/11.from a transcription by Fynn Titford-Mock 2007
B:Thompson's Compleat Collection of 200 Favourite Country Dances Volume IV.
Q:1/4=80
K:D
(FD)DF (GE)EG|(FD)Df f2e2|(FD)DF (GE)EG|(FD)Dc d2D2:|
|:afdA gecA|fdAf f2e2|afdA gecA|fdAc d2D2:|
